styles/1/Numix/48/places/green-folder-books.svg

<?xml version="1.0" encoding="UTF-8" standalone="no"?>
<!-- Created with Inkscape (http://www.inkscape.org/) -->

<svg
   xmlns:dc="http://purl.org/dc/elements/1.1/"
   xmlns:cc="http://creativecommons.org/ns#"
   xmlns:rdf="http://www.w3.org/1999/02/22-rdf-syntax-ns#"
   xmlns:svg="http://www.w3.org/2000/svg"
   xmlns="http://www.w3.org/2000/svg"
   xmlns:sodipodi="http://sodipodi.sourceforge.net/DTD/sodipodi-0.dtd"
   xmlns:inkscape="http://www.inkscape.org/namespaces/inkscape"
   id="svg3396"
   height="48"
   width="48"
   version="1.0"
   inkscape:version="0.91 r"
   sodipodi:docname="green-folder-books.svg">
  <metadata
     id="metadata64">
    <rdf:RDF>
      <cc:Work
         rdf:about="">
        <dc:format>image/svg+xml</dc:format>
        <dc:type
           rdf:resource="http://purl.org/dc/dcmitype/StillImage" />
        <dc:title />
      </cc:Work>
    </rdf:RDF>
  </metadata>
  <sodipodi:namedview
     pagecolor="#ffffff"
     bordercolor="#666666"
     borderopacity="1"
     objecttolerance="10"
     gridtolerance="10"
     guidetolerance="10"
     inkscape:pageopacity="0"
     inkscape:pageshadow="2"
     inkscape:window-width="1366"
     inkscape:window-height="747"
     id="namedview62"
     showgrid="true"
     inkscape:zoom="11.874905"
     inkscape:cx="10.63397"
     inkscape:cy="12.115022"
     inkscape:window-x="0"
     inkscape:window-y="21"
     inkscape:window-maximized="1"
     inkscape:current-layer="svg3396">
    <inkscape:grid
       type="xygrid"
       id="grid3906" />
  </sodipodi:namedview>
  <defs
     id="defs3398" />
  <path
     style="font-size:medium;font-style:normal;font-variant:normal;font-weight:normal;font-stretch:normal;text-indent:0;text-align:start;text-decoration:none;line-height:normal;letter-spacing:normal;word-spacing:normal;text-transform:none;direction:ltr;block-progression:tb;writing-mode:lr-tb;text-anchor:start;baseline-shift:baseline;color:#000000;fill:#66bb6a;fill-opacity:1;fill-rule:nonzero;stroke:none;stroke-width:3.00000023999999987;marker:none;visibility:visible;display:inline;overflow:visible;enable-background:accumulate;font-family:Sans;-inkscape-font-specification:Sans"
     d="M 5.1875 8 C 4.5111319 8.1439566 3.9849192 8.8086463 4 9.5 L 4 37.5 C 4.0000786 38.285377 4.7146233 38.999921 5.5 39 L 42.5 39 C 43.285377 38.999921 43.999921 38.285377 44 37.5 L 44 12.53125 C 43.999921 11.745873 43.285377 11.031329 42.5 11.03125 L 28 11.03125 L 28 9.5 C 27.999921 8.7146233 27.285377 8.0000786 26.5 8 L 5.5 8 C 5.3962117 7.9891307 5.2912883 7.9891307 5.1875 8 z M 17 17 C 20 17 22 17.999348 24 19.666016 C 26 17.999348 28 17 31 17 L 25 21 L 23 21 L 17 17 z M 16 18 L 22 22 L 22 32 L 16 28 L 16 18 z M 32 18 L 32 28 L 26 32 L 26 22 L 32 18 z M 23 22.5 L 25 22.5 L 25 33 L 23 33 L 23 22.5 z "
     id="path3912" />
  <g
     style="opacity:0.4;fill:#3c2f1b;fill-opacity:1"
     id="layer3-1"
     inkscape:label="Symbol"
     transform="matrix(3.5433066,0,0,3.5433066,16,-14.999998)" />
</svg>

<!-- Created with Inkscape (http://www.inkscape.org/) -->
<svg xmlns="http://www.w3.org/2000/svg" viewBox="0 0 48 48">
 <path d="m 5.188 8 c -0.676 0.144 -1.203 0.809 -1.188 1.5 l 0 28 c 0 0.785 0.715 1.5 1.5 1.5 l 37 0 c 0.785 0 1.5 -0.715 1.5 -1.5 l 0 -24.969 c 0 -0.785 -0.715 -1.5 -1.5 -1.5 l -14.5 0 l 0 -1.531 c 0 -0.785 -0.715 -1.5 -1.5 -1.5 l -21 0 c -0.104 -0.011 -0.209 -0.011 -0.313 0 z m 11.813 9 c 3 0 5 0.999 7 2.666 c 2 -1.667 4 -2.666 7 -2.666 l -6 4 l -2 0 l -6 -4 z m -1 1 l 6 4 l 0 10 l -6 -4 l 0 -10 z m 16 0 l 0 10 l -6 4 l 0 -10 l 6 -4 z m -9 4.5 l 2 0 l 0 10.5 l -2 0 l 0 -10.5 z" style="visibility:visible;fill:#66bb6a;fill-opacity:1;stroke:none;display:inline;color:#000;fill-rule:nonzero"/>
</svg>
